X: 63
T: Ung que plus tous I
N: Derived from Bus3059-Ung_que_plus_tous_I.krn
C: Antoine Busnoys
%%abc-version 2.0
%%abcx-abcm2ps-target-version 5.9.1 (29 Sep 2008)
%%abc-creator hum2abc beta
%%abcx-conversion-date 2019/02/16 20:26:07
%%abc-edited-by Jesse Rodin
%%abc-edited-by Chris Gage 04-22-2015
%%abcx-initial-encoding-date 2016/02/08/
%%humdrum-veritas 869305002
%%humdrum-veritas-data 1292127267
%%linebreak <none>
%%barnumbers 0
L: 1/4
M: 4/2
Q: 1/2=120
V: 1 clef=treble
V: 2 clef=treble-8
V: 3 clef=bass
K: F
[V:1] G6FE | 
[V:2] G8 | 
[V:3] G,,4C,4 | 
[V:1] D4D4 | 
[V:2] B4B4 | 
[V:3] B,,8 | 
[V:1] C2F4ED | 
[V:2] A6G2 | 
[V:3] F,,8 | 
[V:1] E2D4CB, | 
[V:2] G3FG2E2 | 
[V:3] G,,2B,,4C,2 | 
[V:1] A,4G,4 | 
[V:2] F4B4 | 
[V:3] D,4B,,4 | 
[V:1] z4F4 | 
[V:2] A2A4G2 | 
[V:3] C,2D,3C,B,,A,, | 
[V:1] B4A2A2- | 
[V:2] d6c2 | 
[V:3] G,,4F,,4- | 
[V:1] A2G2c3B | 
[V:2] d2B2A2G2 | 
[V:3] F,,2G,,2A,,2C,2- | 
[V:1] AGG4^F2 | 
[V:2] c2B2A4 | 
[V:3] C,B,,G,,2D,4 | 
[V:1] G8 | 
[V:2] G4z4 | 
[V:3] G,,2B,,4A,,G,, | 
[V:1] z8 | 
[V:2] A4B4 | 
[V:3] F,,4G,,4 | 
[V:1] z4A4 | 
[V:2] A2c4BA | 
[V:3] A,,4F,,4 | 
[V:1] B4A2c2- | 
[V:2] G4F4- | 
[V:3] G,,4z4 | 
[V:1] c2BAG4 | 
[V:2] F2B4c2 | 
[V:3] z4E,4 | 
[V:1] F3GA2B2- | 
[V:2] d3ef2d2- | 
[V:3] D,6G,2 | 
[V:1] B2A4G2 | 
[V:2] d2c2B4 | 
[V:3] E,2F,2G,4 | 
[V:1] A3GA2B2- | 
[V:2] A3Bc2d2- | 
[V:3] D,2C,B,,A,,2G,,2 | 
[V:1] B2AGF4 | 
[V:2] d2cBA4 | 
[V:3] B,,2C,2D,4 | 
[V:1] z8 | 
[V:2] z8 | 
[V:3] z8 | 
[V:1] B8 | 
[V:2] G8 | 
[V:3] _E,8 | 
[V:1] A4A4 | 
[V:2] c4d4 | 
[V:3] F,8 | 
[V:1] G6F2 | 
[V:2] e8 | 
[V:3] C,8 | 
[V:1] F4D2E2 | 
[V:2] d2e2f4 | 
[V:3] D,8 | 
[V:1] F4B,4 | 
[V:2] B2c2d2cB | 
[V:3] z4G,,4 | 
[V:1] F3EF2G2 | 
[V:2] A3GA2B2 | 
[V:3] D,6B,,2 | 
[V:1] E2F3DE2 | 
[V:2] G2F4G2 | 
[V:3] C,2D,4C,2 | 
[V:1] F2EDC4 | 
[V:2] F2B4A2 | 
[V:3] D,2B,,2F,4 | 
[V:1] B,4z4 | 
[V:2] B8 | 
[V:3] B,,4G,,2B,,2- | 
[V:1] B4A4 | 
[V:2] z8 | 
[V:3] B,,2A,,G,,^F,,3E,, | 
[V:1] G2G4F2 | 
[V:2] B4A4 | 
[V:3] G,,2B,,2C,2D,2 | 
[V:1] G2FED2A2 | 
[V:2] G2G4F2 | 
[V:3] B,,G,,2A,,B,,C,A,,2 | 
[V:1] B2AG^F3E | 
[V:2] G2FED2A2 | 
[V:3] G,,4z4 | 
[V:1] G2d3cBA | 
[V:2] B2AG^F3E | 
[V:3] G,,4A,,4 | 
[V:1] B2AGF4 | 
[V:2] G2d3cBA | 
[V:3] G,,4z4 | 
[V:1] G4A4 | 
[V:2] B2AGF4 | 
[V:3] z4D,4 | 
[V:1] G2G4^F2 | 
[V:2] G4A4 | 
[V:3] _E,4D,4 | 
[V:1] G8- | 
[V:2] G8- | 
[V:3] z4G,,4 | 
[V:1] G8 |]  
[V:2] G8 |]  
[V:3] G,,8 |]  



